X:11
T: Dawg's Breath
C: Ricky Skaggs & Kentucky Thunder
S: from Instrumentals
S: MandoZine TablEdit Archives
Z: TablEdited by Larry Tanner for MandoZine
L: 1/8
Q: 480
M: 4/4
K: Dm
z2 AA "Dm"A2 c2 | d2 dd df dc | dc A2 GA2 c | GF D4 DF | D2 AA A2 c2 | c/d3/2 dd df dc |
dc A2 de2 c | "A"dc A4 AA | A2 fe dc Ac | "Dm"c/d3/2 dd df dc | dc A2 GA2 c | "Gm"A_A G4 G=A |
G2 AA A2 c2 | "Dm"c/d3/2 dd df dc | "A"dc A2 GA2 F | "Dm"GF D4 DF | D2 AA A2 c2 |
c/d3/2 dd df dc | dc dc Ac A_A | GF _AF2_A2G | zF _AF GF D3/2c/ | d2 dd df dc | dc A2 de2 c |
"A"dc A4 cA | z_a gf dc =Ac | "Dm"c/d3/2 dd df dc | dc A2 GA2 c | "Gm"A_A G5=A |
G2 AA A2 c2 | "Dm"d2 dd df dc | "A"dc AG Ad cA | "Dm"GF D2 D2 DF | D2 DD D2 F2 |
"Gm"F/G3/2 GG GG GF | DG FD GF DG | "Dm"Ad AG FD FG | AA AA AA A2 | "Gm"G2 GG GF GB |
AG FD GF G2 | "Abm"_A,=B, DF E_G _A=B | "A"A_d ea _ag fe | "Dm"dc d3A ce | dc d3c dc |
dc AG Ad _A2 | GF D4 cA | cd2d2f dc | dc Ad eg e2 | "A"dc A2 AA A_a | _zg2f gf d2 |
"Dm"d2 dd df dc | dc dc Ac AG | "Gm"zF G4 GA | G2 AA A2 c2 | "Dm"c/d3/2 dd df dc |
"A"dc A2 GA2 c | "Dm"GF D3A2F | GF D6 |
"Second Break..."D2 DD "Dm"DD DD | DD DF ED FE |
DF ED FE FE | DF ED FE _A2 | _z_A3 G2 _AG | zG F2 FE D2 | "A"EE2E _D_D2_D | B,B,2B, A,3=B, |
"Dm"DD3 D3F | (3EFE D_D B,A, G,2 | "Gm"G,B, DG DG BG | Bd Bd g2 f_a | "Dm"gf d2 fd c2 |
"A"Ac AG Ad A2 | "Dm"GF D3_A2F | GF D2 D3_G | Ad2f e2 d2 | d3A4 z/=B,/| DD2F (3EFE D2 |
B,3A,5 | z2 A,B, DF (3EFE | DF ED _DE =D_D | "A"B,2 A,4 z_G | Ad2f e2 d2 | "Dm"d3c3 GA |
zG2F GG FD | "Gm"FF D_D =D_D B,G, | B,G,4z A,B, | "Dm"DF (3EFEF GA | "A"c2 d2 fd c2 |
"Dm"zd _A2 GF2_A | z_A GF GG F2 | "Gm"g4 zf ga | (3gag g3f ga | "Dm"fe df ed ce |
dc A4 Ac | "Gm"G4 zF GA | GF D3F ED | "Abm"_A,2 =B,2 D2 F2 | "A"E2 _A2 c2 _e2 | "Dm"d4 ze dc |
dc dc Ac A_A | GF D3_A2F | GF D2 A2 c2 | d2 dd df dc | dc A2 de2 c | "A"dc A4 AA |
z2 _ag fd c2 | "Dm"c/d3/2 dd df dc | dc A2 GA2 c | "Gm"A_A G5=A | G2 AA A2 c2 |
"Dm"d2 dd df dc | "A"dc A2 GA2 F | "Dm"_AG F_A GF GF | D2 C2 D4 |
